!!!OTL: 620. Wiegenlied.
!!!COM: K. M. v. Weber
!!!ODT: 1810
!!!ARE: Europa, Mitteleuropa, Deutschland
!!!SCT: B0620
!!!TXL: @@DE
!!!YEM: Copyright 1995, estate of Helmut Schaffrath.
**kern	**text
*ICvox	*
*Ivox	*
*clefG2	*
*M3/8	*
*k[]	*
*C:	*
=1	=1
!LO:TX:a:t=Mäßig bewegt.	!
{8g	Schlaf,
8e	Her-
8f	-ʒensſöhnchen,
=2	=2
8.g	.
!LO:TX:a:t=*	!
16ee	.
8cc	mein
=3	=3
(16ccqq	.
8b)	Liebling
8a	.
8b	biſt
=4	=4
4.cc}	du.
=5	=5
{8b	Thu-
8b	-e
8b	die
=6	=6
8cc	blau-
8b	-en
8ee	Guck-
=7	=7
8.dd	-äu-
16cc	-ge-
8a	-lein
=8	=8
4.g}	ʒu!
=9||	=9||
{8g	Al-
8g	-les
8g	iſt
=10	=10
8a	ruh-
8g	-ig
8g	und
=11	=11
8g	ſtill
8g	wie
16gL	ein
16ccJ	.
=12	=12
4.cc}	Grab;
=13	=13
{(16ccqq	.
8b)	ſchlaſ
8a	nur,
8b	ich
=14	=14
8cc	weh-
8e	-re
8a	die
=15	=15
8.g	Flie-
16f	-gen
8d	dir
=16	=16
4c	ab.
8r}	.
==	==
!!!AGN: Kinder -, Wiegen - Lied
!!!GTL: Kinderlieder
!!!ONB: ESAC (Essen Associative Code) Database: BOEHME
!!!AMT: simple triple
!!!AIN: vox
!!!EED: Helmut Schaffrath
!!!EEV: 1.0
!!@@COMMENT:"Franʒ Karl Hiemer 1810. Weber komponirte das Lied ʒu Frankfurt a. M. 13. Sept. 1810(ſ. Jähns, S. 116).
!!* Jm Original heißt die 5. Note d, was vornehm klingt. Warum man ſie nach Webere
!!Tode in e umgewandelt und bis heute beibehalten hat, bleibt unbegreiflich."
!!@@END:
!!!URL-scan: https://archive.org/details/BoehmeVtLieder1895/page/n489/mode/2up
!!!ENC: Anna Maria Matuszewska
!!!EEV: 2024/15/07
*-	*-
